!!!OTL: 71g. Der Goldschmied und das Maedchen.
!!!ODT: 1820
!!!ARE: Europa, Mitteleuropa, Deutschland, Bonn; Koblenz
!!!SCT: E0071G
!!!TXL: @@DE
!!!YEM: Copyright 1995, estate of Helmut Schaffrath.
**kern	**text
*ICvox	*
*M6/8	*
*k[f#]	*
*G:	*
!LO:TX:a:t=Mäßig.	!
!LO:TX:a:t=Mündlich aus der Gegend v. Bonn u. Coblenʒ. 1820.	!
{8d	Es
=1	=1
8g	ſollt
8g	ſich
8g	ein
8.bL	Goldſchmied
16aJ	.
8b/	.
=2	=2
(4g	ſchmie-
8f#)	.
4g}	-den
{16aL	von
16bJ	.
=3	=3
4cc	Gold
8cc	ein
8.bL	Rin-
16ccJ	.
8dd	-ge-
=4	=4
4.a	-lein
4r}	.
{16bL	er
16ccJ	.
=5	=5
8dd	ſchmie-
8dd	-det
16ddL	drei
16ccJ	.
8.bL	gan-
16ccJ	.
8dd	-ʒer
=6	=6
(4dd	Mor-
8cc)	.
4a}	-gen
{8a	bei
=7	=7
8.bL	hel-
16ccJ	.
8dd	-lem
4g	Son-
16bL	-nen-
16aJ	.
=8	=8
4g	-ſchein,
8r}	.
{4.a^	bei
=9	=9
8.bL	hel-
16ccJ	.
8dd	-lem
4g	Son-
16bL	-nen-
16aJ	.
=10	=10
4.g	-ſchein.
4r}	.
==	==
!!!AGN: erzaehlendes Volks - Lied, Sage, Liebe, Ballade ?
!!!ONB: ESAC (Essen Associative Code) Database: ERK1
!!!AMT: compound duple
!!!AIN: vox
!!!EED: Helmut Schaffrath
!!!EEV: 1.0
!!!GTL: Liebesgeschichten mit gluecklichem Ausgange
!!!URL-scan: https://rosdok.uni-rostock.de/mcrviewer/recordIdentifier/rosdok_ppn745146120/iview2/phys_0322.iview2?x=-495.6391625615772&y=1672.8962868929375&scale=0.46294184720638515&rotation=0&layout=singlePageLayout&logicalDiv=log_0009
!!!ENC: Anna Maria Matuszewska
!!!EEV: 2024/11/26
*-	*-
